X:91
T:Polonäs i Gm efter Baumgarten
S:efter C.L. Baumgarten
B:http://www.smus.se/earkiv/fmk/browselarge.php?lang=sw&katalogid=MMD+66&bildnr=00105
R:Slängpolska
O:Gotland
Z:Nils L
L:1/16
M:3/4
N: Jfr J Bagge nr 69.
K:Gm
A2 | Bcdc cBAB G^FGA | d2de cecA B2A2 | Bcdc cBAB G^FGA | BAG^F F2G2 G2 ::
A2 | BAG^F GABc d=fdB | gaba g2ga bag^f | ^fga=f d4 B2f2 | dcBA A2e2 cBAB | 
d2de c2cd BABd | BAG^F F2G2 G2 :|

